collections/iconoir/shopping-code-error.svg

<svg stroke-width="1.5" fill="none" xmlns="http://www.w3.org/2000/svg" viewBox="0 0 24 24" width="20" height="20"><path d="M6 5v2m4-2v6m8-6v1M6 10v6m0 2.5v.5m4-.5v.5m0-5v2m4-3v2m0-10v5m4-1v4m-1.879 8.364l2.122-2.121m0 0l2.121-2.122m-2.121 2.122L16.12 17.12m2.122 2.122l2.121 2.121" stroke="currentColor" stroke-linecap="round" stroke-linejoin="round"/></svg>

<svg stroke-width="1.5" fill="none" xmlns="http://www.w3.org/2000/svg" viewBox="0 0 24 24" width="20" height="20"><path d="M6 5v2M10 5v6M18 5v1M6 10v6M6 18.5v.5M10 18.5v.5M10 14v2M14 13v2M14 5v5M18 9v4M16.121 21.364l2.122-2.121m0 0l2.121-2.122m-2.121 2.122L16.12 17.12m2.122 2.122l2.121 2.121" stroke="currentColor" stroke-linecap="round" stroke-linejoin="round"/></svg>
